!!!SOCIAL_FUNCTION:	songs with treatment of the sick
!!!PDT:	1943
!!!OTL: No_13_The_Whale_Is_Going_to_Help_Me_Cure_This_Sick_Man.krn
!!!REG: British Columbia
**kern	**kern
*staff2	*staff1
=1-	=1-
=	=
*clefF4	*clefF4
*k[b-]	*k[b-]
*M2/4	*M2/4
8GG/L	2c\
8GG/J	.
8GG/L	.
8GG/J	.
=2	=2
8GG/L	12d\L
.	12c\
8GG/J	.
.	12B-\J
4r	8B-\L
.	8G\J
=3	=3
2r	4G\
.	8r
.	8G\
=4||	=4||
*M3/4	*M3/4
2.r	[2c\
.	8c\L]
.	8B-\J
=5	=5
2.r	8B-\L
.	8G\J
.	4G\
.	8r
.	8c\
=6	=6
2.r	8c\L
.	8B-\J
.	12c\L
.	12B-\
.	12G\J
.	8G\
.	8r
=7||	=7||
*M2/4	*M2/4
2r	8.c\L
.	16B-\Jk
.	8.B-\L
.	16G\Jk
=8	=8
2r	2G\
=9||	=9||
*M3/4	*M3/4
2.r	12B-\L
.	12G\
.	12F\J
.	8F\L
.	8F\J
.	8D\
.	16r
.	16G\
=10||	=10||
*M2/4	*M2/4
2r	2G\
=11||	=11||
*M3/4	*M3/4
2.r	12B-\L
.	12G\
.	12F\J
.	8F\L
.	8F\J
.	8D\
.	16r
.	16G\
=12	=12
2.r	8G\L
.	8F\J
.	8F\L
.	8D\J
.	8D\
.	8r
=13||	=13||
*M2/4	*M2/4
2r	8G\L
.	8F\J
.	12F\L
.	12D\
.	12C\J
=14	=14
2r	2C/
=15	=15
2r	12D/L
.	12C/
.	12BB-/J
.	8BB-/L
.	8BB-/J
=16	=16
2r	4GG/
.	8r
.	8D\
=17	=17
2r	8D/L
.	[8C/J
.	4C/]
=18	=18
2r	2C/
==:|!	==:|!
*-	*-
